gama.ui.shared/icons_svg/dark/gaml/_point.svg

<svg height="18" viewBox="-706.497 -2806.737 24 18" width="24" xmlns="http://www.w3.org/2000/svg"><path d="m-693.72045-2797.4325c-.15215 2.9521-2.52 5.32-5.47215 5.4721v.9192c0 .1704-.1339.3042-.3044.3042-.1704 0-.3043-.1338-.3043-.3042v-.9192c-2.9522-.1521-5.32-2.52-5.4722-5.4721h-.9191c-.17046 0-.3044-.1339-.3044-.3045 0-.1703.13394-.3042.3044-.3042h.9191c.1522-2.9522 2.52-5.32 5.4722-5.4722v-.9191c0-.1705.1339-.3045.3043-.3045.1705 0 .3044.134.3044.3045v.9191c2.95215.1522 5.32 2.52 5.47215 5.4722h.91915c.1704 0 .3043.1339.3043.3042 0 .1706-.1339.3045-.3043.3045zm-5.77655 4.8695c2.8548 0 5.17394-2.319 5.17394-5.174 0-2.8547-2.31914-5.1738-5.17394-5.1738-2.85475 0-5.1739 2.3191-5.1739 5.1738 0 2.855 2.31915 5.174 5.1739 5.174zm0-2.4347c-1.5156 0-2.7391-1.2235-2.7391-2.7393 0-1.5155 1.2235-2.739 2.7391-2.739 1.5157 0 2.7392 1.2235 2.7392 2.739 0 1.5158-1.2235 2.7393-2.7392 2.7393zm0-.6087c1.1748 0 2.1305-.9556 2.1305-2.1306 0-1.1747-.9557-2.1303-2.1305-2.1303-1.17475 0-2.1304.9556-2.1304 2.1303 0 1.175.95565 2.1306 2.1304 2.1306z" fill="#999"/></svg>

<?xml version="1.0" encoding="UTF-8" standalone="no"?>
<!DOCTYPE svg PUBLIC "-//W3C//DTD SVG 1.1//EN" "http://www.w3.org/Graphics/SVG/1.1/DTD/svg11.dtd">
<svg xmlns:dc="http://purl.org/dc/elements/1.1/" xmlns:xl="http://www.w3.org/1999/xlink" version="1.1" xmlns="http://www.w3.org/2000/svg" viewBox="-706.497 -2806.737 24 18" width="24" height="18">
  <defs/>
  <g id="SOURCES" stroke-dasharray="none" stroke="none" stroke-opacity="1" fill="none" fill-opacity="1">
    <title>SOURCES</title>
    <g id="SOURCES_New">
      <title>New</title>
      <g id="Group_10471">
        <g id="Graphic_10306"/>
        <g id="Group_10307">
          <title>my-location</title>
          <g id="Graphic_10308">
            <path d="M -693.72045 -2797.4325 C -693.8726 -2794.4804 -696.24045 -2792.1125 -699.1926 -2791.9604 L -699.1926 -2791.0412 C -699.1926 -2790.8708 -699.3265 -2790.737 -699.497 -2790.737 C -699.6674 -2790.737 -699.8013 -2790.8708 -699.8013 -2791.0412 L -699.8013 -2791.9604 C -702.7535 -2792.1125 -705.1213 -2794.4804 -705.2735 -2797.4325 L -706.1926 -2797.4325 C -706.36306 -2797.4325 -706.497 -2797.5664 -706.497 -2797.737 C -706.497 -2797.9073 -706.36306 -2798.0412 -706.1926 -2798.0412 L -705.2735 -2798.0412 C -705.1213 -2800.9934 -702.7535 -2803.3612 -699.8013 -2803.5134 L -699.8013 -2804.4325 C -699.8013 -2804.603 -699.6674 -2804.737 -699.497 -2804.737 C -699.3265 -2804.737 -699.1926 -2804.603 -699.1926 -2804.4325 L -699.1926 -2803.5134 C -696.24045 -2803.3612 -693.8726 -2800.9934 -693.72045 -2798.0412 L -692.8013 -2798.0412 C -692.6309 -2798.0412 -692.497 -2797.9073 -692.497 -2797.737 C -692.497 -2797.5664 -692.6309 -2797.4325 -692.8013 -2797.4325 Z M -699.497 -2792.563 C -696.6422 -2792.563 -694.32306 -2794.882 -694.32306 -2797.737 C -694.32306 -2800.5917 -696.6422 -2802.9108 -699.497 -2802.9108 C -702.35175 -2802.9108 -704.6709 -2800.5917 -704.6709 -2797.737 C -704.6709 -2794.882 -702.35175 -2792.563 -699.497 -2792.563 Z M -699.497 -2794.9977 C -701.0126 -2794.9977 -702.2361 -2796.2212 -702.2361 -2797.737 C -702.2361 -2799.2525 -701.0126 -2800.476 -699.497 -2800.476 C -697.9813 -2800.476 -696.7578 -2799.2525 -696.7578 -2797.737 C -696.7578 -2796.2212 -697.9813 -2794.9977 -699.497 -2794.9977 Z M -699.497 -2795.6064 C -698.3222 -2795.6064 -697.3665 -2796.562 -697.3665 -2797.737 C -697.3665 -2798.9117 -698.3222 -2799.8673 -699.497 -2799.8673 C -700.67175 -2799.8673 -701.6274 -2798.9117 -701.6274 -2797.737 C -701.6274 -2796.562 -700.67175 -2795.6064 -699.497 -2795.6064 Z" fill="#999"/>
          </g>
        </g>
      </g>
    </g>
  </g>
</svg>
